X: 24665
T: Mack's
R: slip jig
M: 9/8
K: Eminor
|:B,Ec BAF GFD|B,DE BAG FEF|B,Ec BAF GFG|BAF AFE DB,A,|
B,Ec BAF GFD|B,DE BAG FEF|B,EE EFG AFD|1 FGG GAB F2D:|2 FGG GAB cdf||
|:e2E BEA FFD|B,2G GAB def|e2E BEA FFD|c2B ABc F2D|
e2E GEA FFD|B,2D B2c BAF|DCD EFG FED|1 FGG GAB cdf:|2 FGG GAB FED||

